X: 37648
T: Snow On The Roof
R: waltz
M: 3/4
K: Amajor
|:[Eca]3 c/a/ B3 a/B/|A3 F E2 F/A/|A3 TA/ B AB|(Bc) (cd) B2|
c/e/ f2 f (g/a/) g|f e2 (B/c/) A2|E (E/F/) AF (F/E/) A|(E/G/) [AEa]5:|
|:[ADaf]3 f/e3/2 fe|ag f/e3/2 B2|B ([Be]c) c ([ce]d)|d [ce]3/2 f/e/ B2|
|:[ADaf]3 f/e3/2 fe|ag ad3/2 d/c|a cB3/2 a B/|A3 F E2|
E (E/F/)AF (F/E/) A|(E/G/) [AEa]5:|

